site/static/img/SVG/groupCurve1.svg

<svg xmlns="http://www.w3.org/2000/svg" width="1920" height="1500">
   
    <symbol id="curve1" viewBox="0 0 1919 503">
        <path opacity="0.24" d="M1919 44.7982C1919 44.7982 1763.16 52.7591 1640.36 7.62522C1517.55 -37.5086 1148.04 132.136 1124.24 139.739C1100.44 147.342 939.132 188.907 739.352 178.479C539.573 168.051 45.5255 213.578 0 233.518C1.42902 234.053 0 503 0 503H1919V44.7982Z" fill="white"/>
    </symbol>
    <symbol id="curve2" viewBox="0 0 1920 536">
        <path opacity="0.123" d="M1919.78 15.4314C1919.78 15.4314 1709.01 -47.2804 1543.48 80.1391C1377.94 207.559 1215.21 197.515 1088.48 176.806C961.746 156.097 699.889 137.062 399.727 330.057C374.447 347.355 101.652 386.425 0.0795556 369.309C-0.0994444 368.88 0.0795556 535.959 0.0795556 535.959H1919.78V15.4314Z" fill="white"/>
    </symbol>
    <symbol id="curve3" viewBox="0 0 1920 988">
        <path d="M-106 349.614C-106 349.614 -7.40791 332.435 150.937 231.562C245.718 169.128 399.35 142.569 506.826 174.084C643.653 196.594 709.892 224.007 865.278 174.084C1020.66 124.161 1649.56 -28.356 1954.51 4.62468C1954.82 6.17998 1954.51 966.556 1954.51 966.556H-106V349.614Z" fill="#25272E"/>
        <path d="M2161.59 889.934C2161.59 889.934 2057.46 871.805 1890.2 765.358C1790.09 699.474 1627.81 671.447 1514.29 704.704C1369.76 728.458 1299.8 757.385 1135.67 704.704C971.539 652.022 307.256 491.077 -14.8555 525.88C-15.1809 527.521 -14.8555 987.94 -14.8555 987.94H2161.59V889.934Z" fill="white"/>
    </symbol>

    <symbol id="normal" width="100%">
        <use x="0" y="-300" width="100%" href="#curve2"/>
        <use x="0" y="-250" width="100%" href="#curve1"/>
        <use x="0" y="100" width="100%" href="#curve3"/>
    </symbol>

    <use href="#normal"/>
</svg>

<svg xmlns="http://www.w3.org/2000/svg" width="1920" height="1500">
  <defs/>
  <symbol id="b" viewBox="0 0 1919 503">
    <path fill="#fff" d="M1919 44.798s-155.84 7.961-278.64-37.173c-122.81-45.134-492.32 124.511-516.12 132.114-23.8 7.603-185.108 49.168-384.888 38.74C539.573 168.051 45.525 213.578 0 233.518 1.429 234.053 0 503 0 503h1919V44.798z" opacity=".24"/>
  </symbol>
  <symbol id="a" viewBox="0 0 1920 536">
    <path fill="#fff" d="M1919.78 15.431s-210.77-62.711-376.3 64.708c-165.54 127.42-328.27 117.376-455 96.667-126.734-20.709-388.591-39.744-688.753 153.251-25.28 17.298-298.075 56.368-399.647 39.252-.18-.429 0 166.65 0 166.65h1919.7V15.431z" opacity=".123"/>
  </symbol>
  <symbol id="c" viewBox="0 0 1920 988">
    <path fill="#25272E" d="M-106 349.614s98.592-17.179 256.937-118.052c94.781-62.434 248.413-88.993 355.889-57.478 136.827 22.51 203.066 49.923 358.452 0C1020.66 124.161 1649.56-28.356 1954.51 4.624c.31 1.556 0 961.932 0 961.932H-106V349.614z"/>
    <path fill="#fff" d="M2161.59 889.934s-104.13-18.129-271.39-124.576c-100.11-65.884-262.39-93.911-375.91-60.654-144.53 23.754-214.49 52.681-378.62 0C971.539 652.022 307.256 491.077-14.855 525.88c-.326 1.641 0 462.06 0 462.06H2161.59v-98.006z"/>
  </symbol>
  <symbol id="d">
    <use y="-300" href="#a"/>
    <use y="-250" href="#b"/>
    <use y="100" href="#c"/>
  </symbol>
  <use href="#d"/>
</svg>
